configs/marketplace-logos/lifi.svg

<svg width="138" height="138" viewBox="0 0 138 138" fill="none" xmlns="http://www.w3.org/2000/svg">
<rect width="138" height="138" fill="#F5B5FF"/>
<path d="M65.8864 81.8133L44.5504 86.7526C43.7721 86.9476 43.1885 87.7275 43.1885 88.5074V103.195C43.1885 104.43 44.1612 105.21 45.3934 104.95L75.1601 98.0611C76.3923 97.8011 76.9111 96.6313 76.3923 95.5264L71.0096 84.413C70.1666 82.6582 71.0097 80.8385 72.8903 80.4485L92.3457 75.7692C93.7076 75.4442 94.8749 74.0144 94.8749 72.5846V59.0015C94.8749 57.7666 93.9021 56.9218 92.67 57.2467L64.5894 63.9408C62.8384 64.3307 62.0602 66.0205 62.8384 67.6453L67.7671 77.8489C68.6102 79.6036 67.7671 81.3584 65.8864 81.8133Z" fill="black"/>
<path d="M51.8151 45.0933L57.3923 56.5317C58.1056 58.0265 57.3923 59.5863 55.771 59.9113L45.4596 62.3159C44.1626 62.6409 43.125 63.9407 43.125 65.2405V77.5238C43.125 79.6035 44.8111 80.9034 46.8215 80.4484L56.4195 78.2387C57.7165 77.9788 58.7541 76.614 58.7541 75.3141L58.819 62.7059C58.819 60.9511 60.2457 59.1964 61.9319 58.8064L93.3847 51.2674C94.1629 51.0725 94.7466 50.2926 94.7466 49.5127V34.8247C94.7466 33.5899 93.7738 32.745 92.5416 33.0699L53.0472 42.5586C51.8151 42.8186 51.2963 43.9884 51.8151 45.0933Z" fill="black"/>
</svg>

<svg xmlns="http://www.w3.org/2000/svg" fill="none" viewBox="0 0 138 138">
  <path fill="#F5B5FF" d="M0 0h138v138H0z"/>
  <path fill="#000" d="m65.886 81.813-21.336 4.94c-.778.195-1.361.975-1.361 1.754v14.688c0 1.235.972 2.015 2.204 1.755l29.767-6.889c1.232-.26 1.751-1.43 1.232-2.535L71.01 84.413c-.843-1.755 0-3.575 1.88-3.965l19.456-4.679c1.362-.325 2.529-1.755 2.529-3.184V59.002c0-1.235-.973-2.08-2.205-1.755L64.59 63.94c-1.752.39-2.53 2.08-1.752 3.704l4.93 10.204c.842 1.755 0 3.51-1.882 3.964Z"/>
  <path fill="#000" d="m51.815 45.093 5.577 11.439c.714 1.495 0 3.054-1.621 3.38L45.46 62.315c-1.297.325-2.335 1.625-2.335 2.924v12.284c0 2.08 1.686 3.38 3.697 2.924l9.597-2.21c1.298-.26 2.335-1.624 2.335-2.924l.065-12.608c0-1.755 1.427-3.51 3.113-3.9l31.453-7.539c.778-.195 1.362-.974 1.362-1.754V34.825c0-1.235-.973-2.08-2.205-1.755l-39.495 9.489c-1.232.26-1.75 1.43-1.232 2.534Z"/>
</svg>
